!!!!SEGMENT: pl-wtm--r-1143-1--006_dobrzynski-ignacy-feliks--studium-na-temat-oryginalny-op-62-un-poco-meno-vivo.krn
!!!cenid: 18xx:1753
!!!COM: Dobrzyński, Ignacy Feliks
!!!COM-rismID: pe30020642
!!!CDT: 1807/02/15-1867/10/09
!!!CNT: Polish
!!!OPR: Studium na temat oryginalny op. 62
!!!OTL: Un poco meno vivo
!!!OMV: 006
!!!PDT: 1867
!!!AGN: Secular; Variations
!!!SMS-siglum: PL-Wtm
!!!SMS-shelfmark: R 1143/1
!!!SMS-shelfwork: 001-006 M
!!!SMS-variant:
!!!SMS-altvar:
!!!NIFC-rismSourceID: 1001057385
!!!NIFC-rismChildID: 1001057385
!!!NIFC-islandoraID:
!!!URL-pdf-islandora:
!!!URL-scan:
!!!IIIF:
!!!ONB-nifc: UWAGA: numeracja części zgodna z numerami w źródle. Na podstawie partytury (folder r1143-1)
!!!AIN: 1 cello 1 viola 2 violn
!!!key:
**kern	**dynam	**kern	**dynam	**kern	**dynam	**kern	**dynam
*part4	*part4	*part3	*part3	*part2	*part2	*part1	*part1
*staff4	*	*staff3	*	*staff2	*	*staff1	*
*Icello	*	*Iviola	*	*Ivioln	*	*Ivioln	*
*I"Violoncello.	*	*I"Viola.	*	*I"Violino 2do	*	*I"Violino 1o	*
*mI"Violoncello	*	*mI"Viola	*	*mI"Violino II	*	*mI"Violino I	*
*I'vlc	*	*I'vla	*	*I'vl 2	*	*I'vl 1	*
*	*	*	*	*mI'vl II	*	*mI'vl I	*
*clefF4	*	*clefC3	*	*clefG2	*	*clefG2	*
*k[f#c#g#]	*	*k[f#c#g#]	*	*k[f#c#g#]	*	*k[f#c#g#]	*
*A:	*	*A:	*	*A:	*	*A:	*
*M4/4	*	*M4/4	*	*M4/4	*	*M4/4	*
*met(c)	*	*met(c)	*	*met(c)	*	*met(c)	*
*>[A,B,B]	*	*>[A,B,B]	*	*>[A,B,B]	*	*>[A,B,B]	*
=1	=1	=1	=1	=1	=1	=1	=1
*>A	*	*>A	*	*>A	*	*>A	*
!	!	!	!	!	!	!LO:TX:a:i:t=N=o 6. Un poco meno vivo	!
(8c#\L	p	1r	.	(>2e/	p	1r	.
8A\	.	.	.	.	.	.	.
8c#\	.	.	.	.	.	.	.
8A\J	.	.	.	.	.	.	.
8d\L	.	.	.	4f#/	.	.	.
8A\	.	.	.	.	.	.	.
8B\	.	.	.	4g#/)	.	.	.
8e\J)	.	.	.	.	.	.	.
=2	=2	=2	=2	=2	=2	=2	=2
(8c#\L	<	1r	.	(4a\	<	1r	.
8A\	.	.	.	.	.	.	.
8d\	.	.	.	4b\	.	.	.
8A\J	.	.	.	.	.	.	.
8e\L	.	.	.	2cc#\)	.	.	.
8A\	.	.	.	.	.	.	.
8gn\	.	.	.	.	.	.	.
8A\J)	[	.	.	.	[	.	.
=3	=3	=3	=3	=3	=3	=3	=3
(8f#\L	>	1r	.	(2dd\	>	1r	.
8A\	.	.	.	.	.	.	.
8fn\	.	.	.	.	.	.	.
8A\J	.	.	.	.	.	.	.
8e\L	.	.	.	4cc#\	.	.	.
8A\	.	.	.	.	.	.	.
8c#\	.	.	.	4a\)	]	.	.
8A\J)	]	.	.	.	.	.	.
=4	=4	=4	=4	=4	=4	=4	=4
(8G#\L	p	1r	.	(2b\	p	1r	.
8B\	.	.	.	.	.	.	.
8e\	.	.	.	.	.	.	.
8d\J)	.	.	.	.	.	.	.
(8c#\L	.	.	.	4a\)	.	.	.
8e\J	.	.	.	.	.	.	.
4A\)	.	.	.	4r	.	.	.
=5	=5	=5	=5	=5	=5	=5	=5
2E\	.	(>2E/	p	1r	.	(8cc#\L	p
.	.	.	.	.	.	8a\	.
.	.	.	.	.	.	8cc#\	.
.	.	.	.	.	.	8a\J	.
2ryy	.	4F#/	.	.	.	8dd\L	.
.	.	.	.	.	.	8a\	.
.	.	4G#/)	.	.	.	8b\	.
.	.	.	.	.	.	8ee\J)	.
=6	=6	=6	=6	=6	=6	=6	=6
1ryy	.	(>4A/	<	1r	.	(8cc#\L	<
.	.	.	.	.	.	8a\	.
.	.	4B/	.	.	.	8dd\	.
.	.	.	.	.	.	8a\J	.
.	.	2c#/)	.	.	.	8ee\L	.
.	.	.	.	.	.	8a\	.
.	.	.	.	.	.	8ggn\	.
.	.	.	[	.	.	8a\J)	[
!!LO:PB:g=original
=7	=7	=7	=7	=7	=7	=7	=7
1r	.	(2d\	>	1r	.	(8ff#\L	>
.	.	.	.	.	.	8a\	.
.	.	.	.	.	.	8ffn\	.
.	.	.	.	.	.	8a\J	.
.	.	4c#\	.	.	.	8ee\L	.
.	.	.	.	.	.	8a\	.
.	.	4A\)	]]	.	.	8cc#\	.
.	.	.	.	.	.	8a\J)	]]
=8	=8	=8	=8	=8	=8	=8	=8
1r	.	(2B^>/	p	1r	.	(8g#\L	p
.	.	.	.	.	.	8b\	.
.	.	.	.	.	.	8ee\	.
.	.	.	.	.	.	8dd\J	.
.	.	4A/)	.	.	.	8cc#\L	.
.	.	.	.	.	.	8ee\J	.
.	.	4r	.	.	.	4a\)	.
=9!|:	=9!|:	=9!|:	=9!|:	=9!|:	=9!|:	=9!|:	=9!|:
*>B	*	*>B	*	*>B	*	*>B	*
!	!	!	!LO:MO:null:mod=p	!	!	!	!
1r	.	(8c#/L	.	(>2a/	p	1r	.
!	!	!	!LO:MO:mod=.	!	!	!	!
.	.	8C#/	p	.	.	.	.
.	.	8c#/	.	.	.	.	.
.	.	8C#/J	.	.	.	.	.
!	!	!	!	!LO:TX:b:i:t=dolente	!	!	!
.	.	8B/L	.	4g#/	.	.	.
.	.	8C#/	.	.	.	.	.
.	.	8A/	.	4f#/)	.	.	.
.	.	8C#/J)	.	.	.	.	.
=10	=10	=10	=10	=10	=10	=10	=10
1r	.	(8G#/L	.	(>4e#X/	.	1r	.
.	.	8C#/	.	.	.	.	.
.	.	8F#/	.	4f#/	.	.	.
.	.	8C#/J	.	.	.	.	.
.	.	8E#X/L	.	2g#/)	.	.	.
.	.	8C#/	.	.	.	.	.
.	.	8E#/	.	.	.	.	.
.	.	8C#/J)	.	.	.	.	.
=11	=11	=11	=11	=11	=11	=11	=11
1r	.	8F#/	<	(4a\	<	1r	.
.	.	4A^>/	.	.	.	.	.
.	.	.	.	4cc#\)	.	.	.
.	.	[8F#/	.	.	.	.	.
.	.	8F#/L]	[	2dd#Xt\	[ f	.	.
.	.	(16G#/L	f	.	.	.	.
.	.	16A/JJ	.	.	.	.	.
.	.	8B/L	.	.	.	.	.
.	.	8A/J)	.	.	.	.	.
.	.	.	.	(16qqcc#/LL	[	.	.
.	.	.	.	16qqdd#/JJ)	[[	.	.
=12	=12	=12	=12	=12	=12	=12	=12
1r	.	(8G#/L	>	(2ee\	>	1r	.
.	.	8B/	.	.	.	.	.
.	.	8e/)	.	.	.	.	.
.	.	(<[8E/J	.	.	.	.	.
.	.	8E/L]	.	4e/)	.	.	.
.	.	8B/	]	.	.	.	.
.	.	8c#/	.	4r	]	.	.
.	.	8d/J	.	.	.	.	.
=13	=13	=13	=13	=13	=13	=13	=13
!	!LO:MO:null:mod=!LO&colon;DY&colon;ed=brack	!	!	!	!	!	!
!	!	!	!	!	!	!	!
!	!LO:MO:null:mod=p	!	!	!	!	!	!
(8c#\L	.	4c#\)	.	(>2e/	p	1r	.
!	!	!	!LO:MO:mod=.	!	!	!	!
8A\	.	.	p	.	.	.	.
8c#\	.	4r	.	.	.	.	.
8A\J	.	.	.	.	.	.	.
8d\L	.	2rB	.	4f#/	.	.	.
8A\	.	.	.	.	.	.	.
8B\	.	.	.	4g#/)	.	.	.
8e\J)	.	.	.	.	.	.	.
!!LO:LB:g=original
=14	=14	=14	=14	=14	=14	=14	=14
(8c#\L	<	1ryy	.	(4a\	<	1r	.
8A\	.	.	.	.	.	.	.
8d\	.	.	.	4b\	.	.	.
8A\J	.	.	.	.	.	.	.
8e\L	.	.	.	2cc#\)	.	.	.
8A\	.	.	.	.	.	.	.
8gn\	[	.	.	.	.	.	.
8A\J)	.	.	.	.	[	.	.
=15	=15	=15	=15	=15	=15	=15	=15
(8f#\L	>	1ryy	.	(2dd\	>	1r	.
8A\	.	.	.	.	.	.	.
8fn\	.	.	.	.	.	.	.
8A\J	.	.	.	.	.	.	.
8e\L	.	.	.	4cc#\	.	.	.
8A\	.	.	.	.	.	.	.
8c#\	]	.	.	4a\)	]	.	.
8A\J)	.	.	.	.	.	.	.
=16	=16	=16	=16	=16	=16	=16	=16
(8G#\L	p	1ryy	.	(2b^<\	p	1r	.
8B\	.	.	.	.	.	.	.
8e\	.	.	.	.	.	.	.
8d\J	.	.	.	.	.	.	.
8c#\L	.	.	.	4a\)	.	.	.
8e\J	.	.	.	.	.	.	.
4A\)	.	.	.	4r	.	.	.
=17	=17	=17	=17	=17	=17	=17	=17
1r	.	(2a\	p	1r	.	(8ccc#\L	p
.	.	.	.	.	.	8cc#\	.
!	!	!LO:TX:b:i:t=dolente	!	!	!	!	!
.	.	.	.	.	.	8ccc#\	.
.	.	.	.	.	.	8cc#\J	.
.	.	4g#\	.	.	.	8bb\L	.
.	.	.	.	.	.	8cc#\	.
.	.	4f#\)	.	.	.	8aa\	.
.	.	.	.	.	.	8cc#\J)	.
=18	=18	=18	=18	=18	=18	=18	=18
1r	.	(4e#X\	.	1r	.	(8gg#\L	.
.	.	.	.	.	.	8cc#\	.
.	.	4f#\	.	.	.	8ff#\	.
.	.	.	.	.	.	8cc#\J	.
.	.	2g#\)	.	.	.	8ee#X\L	.
.	.	.	.	.	.	8cc#\	.
.	.	.	.	.	.	8ee#\	.
.	.	.	<	.	.	8cc#\J)	.
=19	=19	=19	=19	=19	=19	=19	=19
1r	.	(4a\	.	1r	.	8ff#'\	<
.	.	.	.	.	.	4aa^<\	.
.	.	4cc#\)	.	.	.	.	.
.	.	.	[	.	.	[8ff#\	.
.	.	2ddT\	f	.	.	8ff#\L]	[
.	.	.	.	.	.	(16gg#\L	f
.	.	.	.	.	.	16aa\JJ	.
.	.	.	.	.	.	8bb\L	.
.	.	.	.	.	.	8aa\J)	.
.	.	(16qqcc#/LL	.	.	.	.	.
.	.	16qqdd/JJ)	.	.	.	.	.
!!LO:LB:g=original
=20	=20	=20	=20	=20	=20	=20	=20
!	!	!	!	!	!	!LO:TX:a:t=P:mixedbeam:problem	!
1r	.	(2ee\	>	1ryy	.	(8gg#\L	>
.	.	.	.	.	.	8bb\	.
.	.	.	.	.	.	8eee\)	.
.	.	.	.	.	.	([8e/J	.
.	.	4e\)	]	.	.	8e/L]	.
.	.	.	.	.	.	8b/	.
.	.	4r	.	.	.	8cc#/	]
.	.	.	.	.	.	8dd/J)	.
=21	=21	=21	=21	=21	=21	=21	=21
(2E\	p	1ryy	.	1ryy	.	(8cc#\L	p
.	.	.	.	.	.	8a\	.
.	.	.	.	.	.	8cc#\	.
.	.	.	.	.	.	8a\J	.
4F#\	.	.	.	.	.	8dd\L	.
.	.	.	.	.	.	8a\	.
4G#\)	.	.	.	.	.	8b\	.
.	.	.	.	.	.	8ee\J)	.
=22	=22	=22	=22	=22	=22	=22	=22
(4A\	<	1ryy	.	1ryy	.	(8cc#\L	<
.	.	.	.	.	.	8a\	.
4B\	.	.	.	.	.	8dd\	.
.	.	.	.	.	.	8a\J	.
2c#\)	.	.	.	.	.	8ee\L	.
.	[	.	.	.	.	8a\	.
.	.	.	.	.	.	8ggn\	.
.	.	.	.	.	.	8a\J)	[
=23	=23	=23	=23	=23	=23	=23	=23
(2d\	>	1ryy	.	1ryy	.	(8ff#\L	>
.	.	.	.	.	.	8a\	.
.	.	.	.	.	.	8ffn\	.
.	.	.	.	.	.	8a\J	.
4c#\	.	.	.	.	.	8ee\L	.
.	.	.	.	.	.	8a\	.
4A\)	.	.	.	.	.	8cc#\	.
.	]	.	.	.	.	8a\J)	]
=24	=24	=24	=24	=24	=24	=24	=24
!LO:TX:b:t=P:problem=diminuendolike accent	!	!	!	!	!	!	!
(2B^<\	.	1ryy	.	1ryy	.	(8g#\L	p
.	.	.	.	.	.	8b\	.
.	.	.	.	.	.	8ee\	.
.	.	.	.	.	.	8dd\J	.
4A\)	.	.	.	.	.	8cc#\L	.
.	.	.	.	.	.	8ee\J	.
4r	.	.	.	.	.	4a\)	.
==:|!	==:|!	==:|!	==:|!	==:|!	==:|!	==:|!	==:|!
*-	*-	*-	*-	*-	*-	*-	*-
!!!system-decoration: {(s1,s2,s3,s4)}
!!!RDF**kern: > = above
!!!RDF**kern: < = below
!!!filter-modern: sic -sq | autostem -r | shed -k -e "s/([^a-gA-Gn#X-])[<>]/$1/g" | shed -e "s/TX(.*):t=P:/tx$1:t=P:/LG"  | modori -m
!!!ENC-modern: Leszek Kubiak
!!!END-modern: 2022-07-29
!!!ENC: Marta Lawrence
!!!END: 2021-04-12
!!!ENC: Berenika Jozajtis
!!!END: 2021-04-06
!!!YEC: Copyright 2022 Narodowy Instytut Fryderyka Chopina (https://polishscores.org)
!!!YEM: License CC-BY-4.0 (https://creativecommons.org/licenses/by/4.0)
